public/library/odos-icon-dark.svg

<svg width="72" height="72" viewBox="0 0 72 72" fill="none" xmlns="http://www.w3.org/2000/svg">
<g clip-path="url(#clip0_254_6922)">
<circle cx="36" cy="36" r="36" fill="#FBFBFB"/>
<path d="M35.0043 57.9984C33.6224 57.7797 32.2302 57.6189 30.8627 57.3322C27.2337 56.563 23.849 54.9149 21.0056 52.5325L22.5897 51.13C30.413 56.7196 38.5396 57.1795 47.1694 52.3531L45.1976 50.7216C40.4537 53.4277 35.2209 54.098 29.7695 52.3118C25.7227 50.9815 22.5195 48.4796 20.1847 44.9195C15.6161 37.9707 16.6247 28.85 21.5976 23.2707L22.9568 24.8383C18.7141 30.6671 18.2005 36.8322 21.7605 43.4015L23.5054 41.77C19.6525 34.0827 22.9279 26.9833 27.579 23.7307C32.4591 20.3233 39.7998 20.3604 43.9064 23.9534L42.4997 25.4715C39.5654 23.4914 36.3876 22.8919 32.9665 23.6729C30.5024 24.2335 28.2933 25.5941 26.6839 27.5423C23.4848 31.3045 22.8269 37.1663 26.4508 42.1866L23.0269 44.936C27.1253 50.5772 37.1205 54.0217 45.6761 47.836C46.5012 48.6487 47.3757 49.4242 48.1512 50.2926C48.7267 50.9423 49.1041 50.8866 49.7188 50.3235C57.8412 42.8982 58.8952 31.0033 52.1753 22.3178L51.5565 21.5134L53.0189 19.9891C54.4867 21.5345 55.6913 23.3098 56.5851 25.2446C57.7861 27.6681 58.5082 30.3007 58.7116 32.9978C58.7563 33.2621 58.8296 33.5208 58.9303 33.7692V36.4382C58.7838 37.2632 58.625 38.0986 58.493 38.9319C57.0884 47.9289 49.6631 55.6264 40.6971 57.3528C39.3564 57.6085 38.0013 57.7859 36.6544 57.9984H35.0043Z" fill="#FF5100"/>
<path d="M12.5215 33.563C12.7277 32.4306 12.8948 31.2942 13.1403 30.1659C14.1179 25.5403 16.5117 21.3339 19.989 18.1308C23.4664 14.9277 27.8548 12.8868 32.545 12.2916C39.1659 11.4377 45.0999 13.195 50.3843 17.3656L48.7342 18.8094C44.2749 15.303 39.0112 13.8117 33.1452 14.4491C30.204 14.7667 26.2273 16.2435 24.1524 17.9596C24.701 18.3721 25.1837 18.8259 25.755 19.1022C26.0293 19.2342 26.5182 19.1022 26.8296 18.9393C31.5323 16.4642 36.468 15.93 41.4739 17.6399C48.5341 20.0552 52.7831 25.0301 53.9505 32.4183C54.792 37.7377 53.2904 42.4672 49.947 46.6851C49.4128 46.1674 48.9343 45.7033 48.4228 45.2042C52.7232 39.3258 53.2121 33.1711 49.6108 26.4347C49.0353 27.0741 48.5259 27.5279 48.167 28.0848C48.0288 28.3014 48.167 28.7696 48.3031 29.0728C50.4544 34.023 50.0996 38.7421 46.9521 43.1478C42.6558 49.1705 33.7867 50.604 27.7846 46.3242C27.6582 46.2188 27.5377 46.1066 27.4236 45.988L28.9438 44.5896C34.7623 48.3249 41.0758 46.5655 44.4709 42.8116C47.639 39.3114 48.9281 33.4021 45.1309 27.9672L48.3258 25.059C44.9535 19.9335 34.8654 15.5917 25.6828 22.192L22.6838 19.0362C15.4524 24.071 10.8137 37.5458 19.8808 48.5188L18.3937 49.9956C15.8212 47.1449 14.0293 43.6776 13.1918 39.9302C12.9134 38.7091 12.7422 37.4551 12.5215 36.2299V33.563Z" fill="#FF5100"/>
<path d="M27.7852 29.5327H43.6216C40.9857 34.5675 38.3951 39.5177 35.7158 44.6122L27.7852 29.5327ZM41.2291 31.7459H31.407L36.2954 41.0502L41.2291 31.7459Z" fill="#FF5100"/>
</g>
<defs>
<clipPath id="clip0_254_6922">
<rect width="72" height="72" fill="white"/>
</clipPath>
</defs>
</svg>

<svg xmlns="http://www.w3.org/2000/svg" width="72" height="72" fill="none" viewBox="0 0 72 72"><g clip-path="url(#a)"><circle cx="36" cy="36" r="36" fill="#fbfbfb"/><path fill="#ff5100" d="M35.004 57.998c-1.382-.218-2.774-.38-4.141-.666a22.67 22.67 0 0 1-9.857-4.8l1.584-1.402c7.823 5.59 15.95 6.05 24.58 1.223l-1.972-1.631c-4.744 2.706-9.977 3.376-15.428 1.59-4.047-1.33-7.25-3.832-9.585-7.392-4.569-6.95-3.56-16.07 1.413-21.65l1.359 1.568c-4.243 5.83-4.756 11.994-1.197 18.563l1.745-1.631c-3.852-7.687-.577-14.787 4.074-18.04 4.88-3.407 12.22-3.37 16.327.223L42.5 25.471q-4.402-2.97-9.533-1.798a11.44 11.44 0 0 0-6.283 3.87c-3.2 3.762-3.857 9.623-.233 14.644l-3.424 2.749c4.098 5.641 14.093 9.086 22.65 2.9.824.813 1.699 1.588 2.474 2.457.576.65.953.594 1.568.03 8.122-7.425 9.176-19.32 2.456-28.005l-.618-.805 1.462-1.524a19.5 19.5 0 0 1 3.566 5.256 21 21 0 0 1 2.127 7.753q.067.398.218.771v2.67c-.146.824-.305 1.66-.437 2.493-1.405 8.997-8.83 16.694-17.796 18.42-1.34.257-2.696.434-4.043.646z"/><path fill="#ff5100" d="M12.522 33.563c.206-1.132.373-2.269.618-3.397a22.76 22.76 0 0 1 19.405-17.874c6.62-.854 12.555.903 17.84 5.074l-1.65 1.443c-4.46-3.506-9.724-4.997-15.59-4.36-2.941.318-6.918 1.795-8.993 3.51.549.413 1.032.867 1.603 1.143.274.132.763 0 1.075-.163 4.702-2.475 9.638-3.009 14.644-1.3 7.06 2.416 11.31 7.391 12.477 14.78.841 5.319-.66 10.048-4.004 14.266-.534-.518-1.013-.982-1.524-1.48 4.3-5.88 4.79-12.034 1.188-18.77-.576.64-1.085 1.093-1.444 1.65-.138.216 0 .685.136.988 2.151 4.95 1.797 9.67-1.35 14.075-4.297 6.022-13.166 7.456-19.168 3.176a5 5 0 0 1-.361-.336l1.52-1.398c5.818 3.735 12.132 1.975 15.527-1.778 3.168-3.5 4.457-9.41.66-14.845l3.195-2.908c-3.373-5.126-13.46-9.467-22.643-2.867l-3-3.156c-7.23 5.035-11.87 18.51-2.802 29.483l-1.487 1.477a22.3 22.3 0 0 1-5.202-10.066c-.279-1.22-.45-2.475-.67-3.7z"/><path fill="#ff5100" d="M27.785 29.533h15.837c-2.636 5.035-5.227 9.985-7.906 15.08zm13.444 2.213h-9.822l4.888 9.304z"/></g><defs><clipPath id="a"><path fill="#fff" d="M0 0h72v72H0z"/></clipPath></defs></svg>
